X: 4261
M: 6/8
L: 1/8
K: A
a |\
eAA cAA | d2e fga | ece dB=G | AAA A2 :|
|: e |\
c2e ece | AA=g f3 | c2e ecA | B2c dB=G |\
c2e ece | AA=g f^ga | ece dB=G | AAA A2 :|


